X:1
T:Title
%%score { 1 | ( 2 3 ) }
L:1/8
Q:1/4=95
M:6/8
K:Ab
V:1 treble nm="Grand Piano"
V:2 bass 
V:3 bass 
V:1
 [Ec]2 [DB] [CA]2 [EG] | FAF [CE]2 [CA] | [EA]2 [EB] [Ec]2 [CEA] | .[B,=DA]2 [DA] B3 | c2 d e2 c | %5
w: J.~M.~Harris * * *|||||
 B2 A B2 F | GAF E2 c | BcB [CA]3 | c2 d e3 | cBA B3 | E2 d dcB | E[EA]B c3 | c2 d e2 c | %13
w: ||||||||
 B2 A B2 F | [EA]2 B cdc | c2 B [CA]3 |] %16
w: |||
V:2
 [A,,A,]2 [A,,A,] [A,,A,]2 [C,A,] | .A,3 z3 | [C,A,]2 [E,G,] A,2 A,, | z G[B,,F,] [E,G,E]3 | %4
 [A,E]2 [A,B,E] [A,CA]2[K:bass] [A,E] | [E,G,D]2 [F,A,C] [D,F,D]2 [D,A,D] | %6
 [=D,A,_C]2 [D,A,C] [E,A,=C]2 [E,A,E] | DE[E,G,D] [A,,A,]3 | [A,E]2 [A,B,E] [A,CE]3 | %9
 E-[G,B,E][F,B,=D] [E,G,E]3 | z3 .B,3 | A,-[C,A,][E,G,E] [A,E]3 | [A,E]2 [A,B,E] [A,CE]2 [A,E] | %13
 [E,G,D]2 [F,A,C] [D,F,D]2 [D,A,D] | [C,A,]2 [E,G,E][K:treble] EF[K:bass][A,E] | %15
 [E,A,E]2 [E,G,D] [A,,A,]3 |] %16
V:3
 x6 | [D,D]-[D,F,D][D,A,D] [A,,A,]2 [A,,A,] | x6 | .B,,3 z3 | x5[K:bass] x | x6 | x6 | %7
 .[E,G,]3 z3 | x6 | .A,3 z3 | [E,G,]2 [E,B,E] [E,E]-[E,A,E][E,G,D] | .[E,C]3 z3 | x6 | x6 | %14
 z3[K:treble] .A,3[K:bass] | x6 |] %16

